images/icon/sale.svg

<svg xmlns="http://www.w3.org/2000/svg" width="1024" height="1024" class="colorable-icon" overflow="visible" viewBox=".974 -.725 1023.026 1023.959"><g fill="none" stroke="#fff" stroke-linecap="round" stroke-linejoin="round" stroke-width="45"><path d="M870.8 464.77c22.83-23.69 29.43-32.03 36.25-42.63 6.37-13 9.56-21.73 12.54-33.34l1.69-12.41M629.71 552.07c-20.59 14.5-38.81 30.15-56.07 48.28-14.04 17.99-28.6 40.98-39.47 62.6-8.92 23.18-15.91 48.79-20.08 74.24-1.74 26.12-.98 48.84 2.72 76.45 5.64 23.58 14.78 50.21 24.5 71.48 12.9 22.29 27.46 42.77 42.28 59.92 17.22 16.64 36.81 32.19 59.76 46.63 22.47 11.05 46.5 20.34 69.93 26.68 23.38 3.89 50.61 5.64 76.69 4.58 25.19-3.51 49.74-9.39 73.77-17.62 21.95-9.99 44.37-22.91 65.72-38.57 16.95-15.23 36.09-36.11 50.02-54.71 13.34-22.21 24.44-45.69 33.32-70.81 5.76-22.87 9.56-47.24 11.2-73.41-.78-22.88-4.3-49.15-9.87-72.32-8.78-25.22-17.81-44.72-32.71-70.19-15.35-20.75-30.93-37.98-49.33-54.66-19.89-14.73-40.53-27.21-62.6-37.84-24-8.84-47.53-15.09-73.43-19.28-23-1.49-50.36-.52-73.05 2.43-23.01 5.16-48.44 13.53-70.47 23.27z"/><path d="M782.99 763.43c13.16 3.31 25.35 7.73 34.73 12.34 9.18 5.91 18.08 13.51 25.36 22.07 5.65 9.33 9.43 18.64 11.52 27.83.65 12.31-1.04 24.63-4 33.96-4.66 9.42-11.28 18.62-17.09 24.7-9.5 7.68-21.78 14.6-34.07 19.09-12.32 2.52-30.89 4.52-50.94 1.85-15.74-4.5-25.29-8.82-35.74-15.19-10.29-8.6-16.81-15.94-23.01-25.27-3.8-8.04-6.48-16.66-8.48-28.06m101.72-73.32c-27.71-5.73-44.32-10.1-60.75-16.3-12.48-6.94-23.01-15.44-30.58-24.85-5.67-11.99-8.35-23.69-8.91-31.93.47-7.5 3.89-22.16 10.62-36.01 9.74-11.98 20.39-20.66 35.51-28.78q17.7-5.55 36.77-8.49M528.18.33c-12.02 1.5-22.64 4.28-30.34 7.16-14.47 7.09-29.73 19.18-49.77 39.08M22.57 472.56c-10.98 12.57-17.72 24.75-20.71 33.76-1.43 7.57-1.43 20.91 2.28 35.27 7.17 12.34 14.48 20.68 33.89 40.15"/><circle cx="718.587" cy="200.805" r="90.475"/><path d="m768.16 773.69-.12 160.41m153.24-557.71.02-313m-153.14 710.3-.51-168.09m0 0 .29-13.22m-.09 26.396a77.94 77.94 0 0 1 84.704 62.813m68.86-618.195a61.75 61.75 0 0 0-78.078-61.908M842.93.01 528.18.33m-80.11 46.24L22.57 472.56m15.46 109.18 297.24 296.37m.675-.482a76.538 76.538 0 0 0 128.74-6.57"/></g></svg>

<svg xmlns="http://www.w3.org/2000/svg" width="1024" height="1024" viewBox="0.9743204116821289 -0.7246742844581604 1023.0256958007812 1023.959228515625" class="colorable-icon" data-export-recolorable-svg="true" overflow="visible"><g fill="none" stroke="white" stroke-width="45" stroke-linecap="round" stroke-linejoin="round"><path d="M 870.8,464.77 C 893.63,441.08 900.23,432.74 907.05,422.14 C 913.42,409.14 916.61,400.41 919.59,388.8 L 921.28,376.39" data-line="nan" stroke-width="45.0"></path><path d="M 629.71,552.07 C 609.12,566.57 590.9,582.22 573.64,600.35 C 559.6,618.34 545.04,641.33 534.17,662.95 C 525.25,686.13 518.26,711.74 514.09,737.19 C 512.35,763.31 513.11,786.03 516.81,813.64 C 522.45,837.22 531.59,863.85 541.31,885.12 C 554.21,907.41 568.77,927.89 583.59,945.04 C 600.81,961.68 620.4,977.23 643.35,991.67 C 665.82,1002.72 689.85,1012.01 713.28,1018.35 C 736.66,1022.24 763.89,1023.99 789.97,1022.93 C 815.16,1019.42 839.71,1013.54 863.74,1005.31 C 885.69,995.32 908.11,982.4 929.46,966.74 C 946.41,951.51 965.55,930.63 979.48,912.03 C 992.82,889.82 1003.92,866.34 1012.8,841.22 C 1018.56,818.35 1022.36,793.98 1024.0,767.81 C 1023.22,744.93 1019.7,718.66 1014.13,695.49 C 1005.35,670.27 996.32,650.77 981.42,625.3 C 966.07,604.55 950.49,587.32 932.09,570.64 C 912.2,555.91 891.56,543.43 869.49,532.8 C 845.49,523.96 821.96,517.71 796.06,513.52 C 773.06,512.03 745.7,513.0 723.01,515.95 C 700.0,521.11 674.57,529.48 652.54,539.22 L 629.71,552.07" data-line="nan" stroke-width="45.0"></path><path d="M 782.99,763.43 C 796.15,766.74 808.34,771.16 817.72,775.77 C 826.9,781.68 835.8,789.28 843.08,797.84 C 848.73,807.17 852.51,816.48 854.6,825.67 C 855.25,837.98 853.56,850.3 850.6,859.63 C 845.94,869.05 839.32,878.25 833.51,884.33 C 824.01,892.01 811.73,898.93 799.44,903.42 C 787.12,905.94 768.55,907.94 748.5,905.27 C 732.76,900.77 723.21,896.45 712.76,890.08 C 702.47,881.48 695.95,874.14 689.75,864.81 C 685.95,856.77 683.27,848.15 681.27,836.75" data-line="nan" stroke-width="45.0"></path><path d="M 782.99,763.43 C 755.28,757.7 738.67,753.33 722.24,747.13 C 709.76,740.19 699.23,731.69 691.66,722.28 C 685.99,710.29 683.31,698.59 682.75,690.35 C 683.22,682.85 686.64,668.19 693.37,654.34 C 703.11,642.36 713.76,633.68 728.88,625.56 Q 746.58,620.01 765.65,617.07" data-line="nan" stroke-width="45.0"></path><path d="M 528.18,0.33 C 516.16,1.83 505.54,4.61 497.84,7.49 C 483.37,14.58 468.11,26.67 448.07,46.57" data-line="nan" stroke-width="45.0"></path><path d="M 22.57,472.56 C 11.59,485.13 4.85,497.31 1.86,506.32 C 0.43,513.89 0.43,527.23 4.14,541.59 C 11.31,553.93 18.62,562.27 38.03,581.74" data-line="nan" stroke-width="45.0"></path><circle cx="718.5873298898038" cy="200.80471073346888" r="90.47535407501958" data-line="3.0" stroke-width="45.0"></circle><path d="M 768.16,773.69 L 768.04,934.1" data-line="8.0" stroke-width="45.0"></path><path d="M 921.28,376.39 L 921.3,63.39" data-line="9.0" stroke-width="45.0"></path><path d="M 768.16,773.69 L 767.65,605.6" data-line="10.0" stroke-width="45.0"></path><path d="M 767.65,605.6 L 767.94,592.38" data-line="11.0" stroke-width="45.0"></path><path d="M 767.8506183335163,618.7757207813787 A 77.94216490832396,77.94216490832396 0 0,1 852.5541423311411,681.5893380943744" data-line="12.0" stroke-width="45.0"></path><path d="M 921.4136384649307,63.39436540833097 A 61.74873821176288,61.74873821176288 0 0,0 843.3359274010239,1.485963343776362" data-line="13.0" stroke-width="45.0"></path><path d="M 842.93,0.01 L 528.18,0.33" data-line="13.0" stroke-width="45.0"></path><path d="M 448.07,46.57 L 22.57,472.56" data-line="15.0" stroke-width="45.0"></path><path d="M 38.03,581.74 L 335.27,878.11" data-line="16.0" stroke-width="45.0"></path><path d="M 335.9449230128922,877.6275607083287 A 76.53786180521556,76.53786180521556 0 0,0 464.6843881401988,871.057917069987" data-line="17.0" stroke-width="45.0"></path></g></svg>
